(Exported by FreeCAD)
(Post Processor: grbl_post)
(Output Time:2020-03-21 14:29:09.427149)
(begin preamble)
G17 G90
G21
(begin operation: T15: Laser S1000)
(Path: T15: Laser S1000)
(T15: Laser S1000)
(begin toolchange)
; M6 T15
M5
(finish operation: T15: Laser S1000)
(begin operation: Engrave)
(Path: Engrave)
(Engrave)
G0 X1.6489 Y85.0342
M3 S1000.0000
G1 X1.6489 Y85.0342 Z1.0000 F200.00
G2 X25.9005 Y121.8036 Z1.0000 I40.0000 J-0.0000 F200.00
G1 X47.6106 Y131.1021 Z1.0000 F200.00
G1 X148.1253 Y86.4166 Z1.0000 F200.00
G1 X159.4938 Y97.8545 Z1.0000 F200.00
G2 X186.6489 Y82.5843 Z1.0000 I9.2841 J-15.2702 F200.00
G1 X186.6489 Y50.2490 Z1.0000 F200.00
G2 X159.4938 Y34.9788 Z1.0000 I-17.8710 J0.0000 F200.00
G1 X148.1253 Y46.4166 Z1.0000 F200.00
G1 X47.6106 Y1.7312 Z1.0000 F200.00
G1 X25.9005 Y11.0296 Z1.0000 F200.00
G2 X1.6489 Y47.7990 Z1.0000 I15.7484 J36.7694 F200.00
M3 S1
(finish operation: Engrave)
(begin operation: Engrave001)
(Path: Engrave001)
(Engrave001)
G0 X177.5680 Y82.5843
M3 S1000
G1 X177.5680 Y82.5843 Z1.0000 F200.00
G3 X159.9877 Y82.5843 Z1.0000 I-8.7902 J0.0000 F200.00
G1 X159.9877 Y50.2490 Z1.0000 F200.00
G3 X177.5680 Y50.2490 Z1.0000 I8.7902 J0.0000 F200.00
G1 X177.5680 Y82.5843 Z1.0000 F200.00
M3 S1
(finish operation: Engrave001)
(begin postamble)
M5
G17 G90
; M2
